X: 1
T: Jimmy McGettricks
S: Fiona Doherty, Finbar McGreevy, Comholtas video: http://comhaltas.ie/music/detail/comhaltaslive_271_1_finbar_mcgreevy_and_fiona_doherty/
M: 4/4
L: 1/9
K: G
d2 eB dBAG|F/E/D AD BDAF|G2 FE D~G3|FGAc BGGB|
dgeB dBAG|F/E/D AD BDAF|G2 FE D~G3|FGAc BGBd||
gedB cBAg|fdad bdaf|gedB cBAB|dega bggf|
gedB cBAg|fdad bdaf|gedB cBAB|dega b~g3||
